X:1
T:THE RECRUIT'S SONG
M:2/4
Q:1/4=120
K:G
d8|d6B2|G2G2g2=f2|e6c2|e2de=f2e2|g2d4B2|d3ec2A2|
G8|-G6d2|d6e2|=f2=f2g2=f2|e6c2|e2de=f2e2|
g4d2B2|d2e2c2A2|G8|-G7/2||
